icons/evolvere-blue-folders-flat-vivid-dark-fallback/apps/64/anjuta.svg

<?xml version="1.0" encoding="UTF-8" standalone="no"?>
<!-- Created with Inkscape (http://www.inkscape.org/) -->

<svg
   xmlns:dc="http://purl.org/dc/elements/1.1/"
   xmlns:cc="http://creativecommons.org/ns#"
   xmlns:rdf="http://www.w3.org/1999/02/22-rdf-syntax-ns#"
   xmlns:svg="http://www.w3.org/2000/svg"
   xmlns="http://www.w3.org/2000/svg"
   xmlns:sodipodi="http://sodipodi.sourceforge.net/DTD/sodipodi-0.dtd"
   xmlns:inkscape="http://www.inkscape.org/namespaces/inkscape"
   width="64"
   height="64"
   id="svg13094"
   version="1.1"
   inkscape:version="0.91+devel r"
   sodipodi:docname="anjuta.svg">
  <sodipodi:namedview
     id="base"
     pagecolor="#ffffff"
     bordercolor="#666666"
     borderopacity="1.0"
     inkscape:pageopacity="0"
     inkscape:pageshadow="2"
     inkscape:zoom="11.313709"
     inkscape:cx="19.906427"
     inkscape:cy="31.334143"
     inkscape:document-units="px"
     inkscape:current-layer="svg13094"
     showgrid="false"
     inkscape:snap-bbox="true"
     inkscape:bbox-paths="true"
     inkscape:bbox-nodes="true"
     inkscape:snap-bbox-edge-midpoints="true"
     inkscape:snap-bbox-midpoints="true"
     inkscape:object-paths="true"
     inkscape:snap-intersection-paths="true"
     inkscape:object-nodes="true"
     inkscape:snap-smooth-nodes="true"
     inkscape:snap-midpoints="true"
     inkscape:snap-object-midpoints="true"
     inkscape:snap-center="true"
     showguides="true"
     inkscape:guide-bbox="true"
     inkscape:window-width="1920"
     inkscape:window-height="1023"
     inkscape:window-x="-10"
     inkscape:window-y="35"
     inkscape:window-maximized="1"
     inkscape:snap-global="false"
     fit-margin-top="0"
     fit-margin-left="0"
     fit-margin-right="0"
     fit-margin-bottom="0"
     showborder="true"
     inkscape:showpageshadow="false"
     inkscape:snap-page="true">
    <inkscape:grid
       type="xygrid"
       id="grid3075"
       empspacing="5"
       visible="true"
       enabled="true"
       snapvisiblegridlinesonly="true"
       originx="0px"
       originy="18px" />
  </sodipodi:namedview>
  <defs
     id="defs13096" />
  <metadata
     id="metadata13099">
    <rdf:RDF>
      <cc:Work
         rdf:about="">
        <dc:format>image/svg+xml</dc:format>
        <dc:type
           rdf:resource="http://purl.org/dc/dcmitype/StillImage" />
        <dc:title></dc:title>
      </cc:Work>
    </rdf:RDF>
  </metadata>
  <path
     inkscape:connector-curvature="0"
     style="color:#000000;fill:#bc50bd;fill-opacity:1;fill-rule:nonzero;stroke:none;stroke-width:2.28571415;marker:none;visibility:visible;display:inline;overflow:visible;enable-background:accumulate"
     d="m 0,4 0,30 0,28 2,2 30,0 30,0 2,-2 L 64,34 64,4 32,4 0,4 z"
     id="path3443" />
  <path
     inkscape:connector-curvature="0"
     style="color:#000000;fill:#e97bf3;fill-opacity:1;fill-rule:nonzero;stroke:none;stroke-width:2.28571415;marker:none;visibility:visible;display:inline;overflow:visible;enable-background:accumulate"
     d="M 2,0 0,1 0,4 32,4 64,4 64,1 62,0 32,0 2,0 z"
     id="path3447" />
  <path
     style="fill:#f587ff;fill-opacity:1;fill-rule:nonzero"
     d="M 0,3 0,6 2,4 Z"
     id="path4298"
     inkscape:connector-curvature="0"
     sodipodi:nodetypes="cccc" />
  <path
     d="M 64,6 62,4 64,3 z"
     id="path3028"
     style="fill:#d164d6;fill-opacity:1"
     inkscape:connector-curvature="0" />
  <g
     id="g3043"
     inkscape:export-filename="folder.png"
     inkscape:export-xdpi="90"
     inkscape:export-ydpi="90"
     transform="translate(-0.625,0.082283)" />
  <g
     id="scalable"
     transform="matrix(1.0385892,0,0,1.0385892,1214.7222,1878.8121)"
     inkscape:label="#g3701"
     style="fill:#ffffff" />
  <path
     style="fill:#f5e5f6;fill-opacity:1"
     d="M 41,12.875 C 32.928449,13.158137 23.468819,17.895862 15.625,27.40625 21.875438,22.680035 30.693955,14.235098 44,15.59375 45.844152,15.186994 47.842865,14.818897 49.84375,14.65625 47.246392,13.368538 44.231222,12.761654 41,12.875 z m 11.59375,3 c -0.402078,-0.007 -0.841154,0.01922 -1.25,0.03125 -2.453076,0.07217 -4.974523,0.481822 -7.28125,1 C 28.782249,15.231351 19.86715,27.24381 12.84375,30.875 c 1.334302,10.156913 7.655563,21.391898 17.625,28.34375 3.896977,-5.854324 2.670536,-14.788077 1.5625,-20.59375 0.450745,-3.588048 0.97485,-3.985491 2.5,-5.75 0.846916,0.468033 2.613115,2.027368 3.59375,2.40625 0.601759,2.696758 1.705669,3.98638 1.90625,6.75 0.111439,1.136651 -1.199148,2.786807 -0.0625,3.5 2.077852,-0.332151 2.265678,0.685939 3.375,1.0625 3.004215,-0.152586 5.495235,-0.980919 4.875,-3.34375 1.735838,-7.997057 2.170875,-14.862614 0.59375,-22.4375 1.560107,-1.337236 3.297206,-3.560054 4.96875,-4.875 -0.392813,-0.03065 -0.785422,-0.05545 -1.1875,-0.0625 z m -9.53125,9.375 1.3125,4.90625 -2.15625,-1.25 L 43.0625,25.25 z"
     id="path3980"
     inkscape:connector-curvature="0" />
  <path
     style="fill:#250025;fill-opacity:0.08497316"
     d="M 48.6875 14.78125 C 47.077607 14.971481 45.488624 15.265411 44 15.59375 C 35.957131 14.77251 29.562619 17.518836 24.375 20.875 C 24.363653 20.883694 24.355095 20.89754 24.34375 20.90625 C 21.696407 22.938778 19.08436 25.407455 16.65625 28.34375 C 16.765719 28.261558 16.889473 28.208935 17 28.125 C 17.011151 28.116461 17.020083 28.102311 17.03125 28.09375 C 17.694988 27.589151 18.388703 27.05152 19.09375 26.5 C 19.948056 25.828075 20.837803 25.114545 21.78125 24.40625 C 21.792742 24.397618 21.800996 24.383633 21.8125 24.375 C 22.36475 23.960841 22.946548 23.568851 23.53125 23.15625 C 24.114751 22.744497 24.726496 22.306347 25.34375 21.90625 C 25.954507 21.510364 26.573551 21.124643 27.21875 20.75 C 27.258913 20.726805 27.303459 20.710578 27.34375 20.6875 C 27.927369 20.351271 28.512249 20.029661 29.125 19.71875 C 29.208466 19.676966 29.291003 19.634925 29.375 19.59375 C 33.765683 17.408988 38.916917 15.972619 45 16.59375 C 46.844152 16.186994 48.842865 15.818897 50.84375 15.65625 C 50.15667 15.315611 49.429319 15.025876 48.6875 14.78125 z M 53.59375 16.875 C 53.31222 16.870099 53.01348 16.894853 52.71875 16.90625 C 51.392735 18.180109 50.037676 19.762348 48.8125 20.8125 C 50.389625 28.387386 49.954588 35.252943 48.21875 43.25 C 48.838985 45.612831 46.347965 46.441164 43.34375 46.59375 C 42.348088 46.255771 42.07508 45.400203 40.53125 45.46875 C 40.489081 45.896544 40.562701 46.276474 40.96875 46.53125 C 43.046602 46.199099 43.234428 47.217189 44.34375 47.59375 C 47.347965 47.441164 49.838985 46.612831 49.21875 44.25 C 50.954588 36.252943 51.389625 29.387386 49.8125 21.8125 C 51.372607 20.475264 53.109706 18.252446 54.78125 16.9375 C 54.388437 16.90685 53.995828 16.88205 53.59375 16.875 z M 43.0625 25.25 L 42.21875 28.90625 L 43.3125 29.53125 L 43.71875 27.71875 L 43.0625 25.25 z M 34.53125 32.875 C 33.0061 34.639509 32.481995 35.036952 32.03125 38.625 C 33.139286 44.430673 34.365727 53.364426 30.46875 59.21875 C 28.716714 57.997026 27.081923 56.644692 25.5625 55.1875 C 27.355848 57.025584 29.324574 58.723581 31.46875 60.21875 C 35.365727 54.364426 34.139286 45.430673 33.03125 39.625 C 33.481995 36.036952 34.0061 35.639509 35.53125 33.875 C 36.161944 34.223542 37.303769 35.191753 38.25 35.8125 C 38.203236 35.635872 38.167292 35.470778 38.125 35.28125 C 37.144365 34.902368 35.378166 33.343033 34.53125 32.875 z "
     id="path3975" />
</svg>

<svg xmlns="http://www.w3.org/2000/svg" viewBox="0 0 64 64"><g color="#000"><path d="m0 4v30 28l2 2h30 30l2-2v-28-30h-32-32" fill="#bc50bd"/><path d="m2 0l-2 1v3h32 32v-3l-2-1h-30-30" fill="#e97bf3"/></g><path d="m0 3v3l2-2" fill="#f587ff"/><path d="m64 6l-2-2 2-1z" fill="#d164d6"/><path d="m41 12.875c-8.07.283-17.531 5.02-25.375 14.531 6.25-4.726 15.07-13.171 28.375-11.813 1.844-.407 3.843-.775 5.844-.938-2.597-1.288-5.613-1.895-8.844-1.781m11.594 3c-.402-.007-.841.019-1.25.031-2.453.072-4.975.482-7.281 1-15.28-1.675-24.2 10.338-31.22 13.969 1.334 10.157 7.656 21.392 17.625 28.344 3.897-5.854 2.671-14.788 1.563-20.594.451-3.588.975-3.985 2.5-5.75.847.468 2.613 2.027 3.594 2.406.602 2.697 1.706 3.986 1.906 6.75.111 1.137-1.199 2.787-.063 3.5 2.078-.332 2.266.686 3.375 1.063 3-.153 5.495-.981 4.875-3.344 1.736-7.997 2.171-14.863.594-22.438 1.56-1.337 3.297-3.56 4.969-4.875-.393-.031-.785-.055-1.188-.063m-9.531 9.375l1.313 4.906-2.156-1.25.844-3.656" fill="#f5e5f6"/><path d="m48.688 14.781c-1.61.19-3.199.484-4.688.813-8.04-.821-14.437 1.925-19.625 5.281-.011.009-.02.023-.031.031-2.647 2.033-5.259 4.501-7.688 7.438.109-.082.233-.135.344-.219.011-.009.02-.023.031-.031.664-.505 1.357-1.042 2.063-1.594.854-.672 1.744-1.385 2.688-2.094.011-.009.02-.023.031-.031.552-.414 1.134-.806 1.719-1.219.584-.412 1.195-.85 1.813-1.25.611-.396 1.23-.782 1.875-1.156.04-.023.085-.039.125-.063.584-.336 1.168-.658 1.781-.969.083-.042.166-.084.25-.125 4.391-2.185 9.542-3.621 15.625-3 1.844-.407 3.843-.775 5.844-.938-.687-.341-1.414-.63-2.156-.875m4.906 2.094c-.282-.005-.58.02-.875.031-1.326 1.274-2.681 2.856-3.906 3.906 1.577 7.575 1.142 14.44-.594 22.438.62 2.363-1.871 3.191-4.875 3.344-.996-.338-1.269-1.194-2.813-1.125-.042.428.031.808.438 1.063 2.078-.332 2.266.686 3.375 1.063 3-.153 5.495-.981 4.875-3.344 1.736-7.997 2.171-14.863.594-22.438 1.56-1.337 3.297-3.56 4.969-4.875-.393-.031-.785-.055-1.188-.063m-10.531 8.375l-.844 3.656 1.094.625.406-1.813-.656-2.469m-8.531 7.625c-1.525 1.765-2.049 2.162-2.5 5.75 1.108 5.806 2.334 14.739-1.563 20.594-1.752-1.222-3.387-2.574-4.906-4.03 1.793 1.838 3.762 3.536 5.906 5.03 3.897-5.854 2.671-14.788 1.563-20.594.451-3.588.975-3.985 2.5-5.75.631.349 1.773 1.317 2.719 1.938-.047-.177-.083-.342-.125-.531-.981-.379-2.747-1.938-3.594-2.406" fill="#250025" fill-opacity=".085"/></svg>
